X: 4
T:Fairies' Hornpipe, The
M:4/4
L:1/8
R:Hornpipe
K:G
(3DEF[|:GFGA BdcB|AGAB G2Bc|dgfg edcB|cedB A2Bc|!
dggf g2fe|dedc B2AG|ABcA dcAF|1G2GG G2 (3DEF:|2G2GG G2Bc|!
|:dggf g2fe|dedc B2AG|ABcA edcB|Add^c d2B=c|!
dggf g2fe|dedc B2AG|ABcA dcAF|1G2GG G2Bc:|2G2GG G2 (3DEF|]!
